!!!COM: Robert Schumann
!!!CNT: Deutsch
!!!TXO: Deutsch
!!!OTL: "Fru2hlingslied"
!!!LYR: Braun, Ferdinand
!!!OPR: Fu2nf heitere Gesa2nge
!!!OPS: Op. 125
!!!ONM: No. 4
!!!ENC: Leigh VanHandel
!!!YOR: Schumann Lieder - Max Friedlaender, ed.,
!!!YOR: New York: C. F. Peters, Vol. 3
!!!ODT: 1851/
**kern	**silbe
*staff1	*
*clefG2	*
*k[f#c#g#]	*
*M3/4	*
*MM[Sehr munter]	*
=2	=2
4r	.
4r	.
{4cc#	{Das
=3	=3
2b	Ko2rn-
4cc#	-lein
=4	=4
4ee	springt,
2dd}	|}
=5	=5
2.r	.
=6	=6
4r	.
4r	.
{4b	{der
=7	=7
2cc#	Vo-
4dd	-gel
=8	=8
2.ee}	singt,}
=9	=9
4r	.
4r	.
{4b	{der
=10	=10
4.gg#	Fru2h-
8ee	-ling
8g#	ist
8cc#	ge-
=11	=11
2b	-kom-
4e}	-men;}
=12	=12
2.r	.
=13	=13
4r	.
4r	.
{4e#	{es
=14	=14
4f#	rinnt
8a#	der
8cc#	|
4ff#}	Quell,}
=15	=15
4r	.
4r	.
{4ff#	{der
=16	=16
2b	Bach
4dd	fliesst
=17	=17
2.e}	hell,}
=18	=18
2.r	.
=19	=19
4r	.
4r	.
{4a	{das
=20	=20
2dd	Fisch-
4a	-lein
=21	=21
4f#	kommt
8a	|
8dd	|
4ff#	ge-
=22	=22
2.ee	-schwom-
=23	=23
4cc#}	-men.}
4r	.
4r	.
=24	=24
2.r	.
=25	=25
2.r	.
=26	=26
2.r	.
=27	=27
4r	.
4r	.
{4cc#	{Die
=28	=28
2b	Bie-
4cc#	-ne
=29	=29
4ee	summt,
2dd}	|}
=30	=30
2.r	.
=31	=31
4r	.
4r	.
{4b	{die
=32	=32
2cc#	Hor-
4dd	-niss'
=33	=33
2.ee}	brummt,}
=34	=34
4r	.
4r	.
{4b	{die
=35	=35
4.gg#	Spin-
8ee	-ne
8g#	dre-
8cc#	-het
=36	=36
2b	Ne-
4e}	-tze;}
=37	=37
2.r	.
=38	=38
4r	.
4r	.
{4e#	{ver-
=39	=39
4f#	-steckt
8a#	sie
8cc#	|
4ff#}	sitzt,}
=40	=40
4r	.
4r	.
{4ff#	{ihr
=41	=41
2b	Au-
4dd	-ge
=42	=42
2.e}	blitzt,}
=43	=43
4r	.
4r	.
4r	.
=44	=44
4r	.
4r	.
{4a	{sie
=45	=45
2dd	sinnt
4a	auf
=46	=46
4f#	Raub
8a	|
8dd	|
4ff#	und
=47	=47
2.ee	He-
=48	=48
4cc#}	-tze.}
4r	.
4r	.
==	==
*-	*-
